X:197
T:Reel Iroquois
S:Gaston Nolet - SPTDQ 2012
Z:robin.beech@mcgill.ca
M:4/4
L:1/8
K:D
FDDD FDAF | GEEE GEed | cBAG FABc | dcde f2AG |
FDDD FDAF | GEEE GEed | cBAG FABc |1 dfec d2AG :|2 dfec d3F |:
F3G A2f2 | ddde d2cB | A2d2 dcde | d2cB c2B2 |
AAAB c2d2 | e4- ea2a |1 a3g BBgg | (3fff (3dfd (3cdc B2 :|2 a3g B2c2 | dcde d2AG |]

